public/img/services-engineering-160x160.svg

<svg xmlns="http://www.w3.org/2000/svg" width="160" height="160" viewBox="0 0 160 160"><path fill="#384B70" d="M153 7v146H7V7h146m2-2H5v150h150V5zm-17 17v116H22V22h116m2-2H20v120h120V20zm-17 17v86H37V37h86m2-2H35v90h90V35zM93 67v26H67V67h26m2-2H65v30h30V65zm13-13v56H52V52h56m2-2H50v60h60V50z"/></svg>

<?xml version="1.0" encoding="utf-8"?>
<!-- Generator: Adobe Illustrator 16.0.4, SVG Export Plug-In . SVG Version: 6.00 Build 0)  -->
<!DOCTYPE svg PUBLIC "-//W3C//DTD SVG 1.1//EN" "http://www.w3.org/Graphics/SVG/1.1/DTD/svg11.dtd">
<svg version="1.1" id="Layer_1" xmlns="http://www.w3.org/2000/svg" xmlns:xlink="http://www.w3.org/1999/xlink" x="0px" y="0px"
	 width="160px" height="160px" viewBox="0 0 160 160" enable-background="new 0 0 160 160" xml:space="preserve">
<path fill="#384B70" d="M153,7v146H7V7H153 M155,5H5v150h150V5L155,5z M138,22v116H22V22H138 M140,20H20v120h120V20L140,20z M123,37
	v86H37V37H123 M125,35H35v90h90V35L125,35z M93,67v26H67V67H93 M95,65H65v30h30V65L95,65z M108,52v56H52V52H108 M110,50H50v60h60V50
	L110,50z"/>
</svg>
